img/linkeden.svg

<svg width="30" height="28" viewBox="0 0 30 28" fill="none" xmlns="http://www.w3.org/2000/svg">
<path d="M25.6055 0H4.39453C1.97159 0 0 1.81788 0 4.05192V23.6092C0 25.8433 1.97159 27.6611 4.39453 27.6611H25.6055C28.0284 27.6611 30 25.8433 30 23.6092V4.05192C30 1.81788 28.0284 0 25.6055 0ZM10.6055 21.9344H7.08984V10.589H10.6055V21.9344ZM10.6055 8.96826H7.08984V5.72672H10.6055V8.96826ZM22.9102 21.9344H19.3945V15.4513C19.3945 14.5578 18.6058 13.8306 17.6367 13.8306C16.6676 13.8306 15.8789 14.5578 15.8789 15.4513V21.9344H12.3633V10.589H15.8789V11.2C16.7999 10.936 17.3982 10.589 18.5156 10.589C20.8999 10.5913 22.9102 12.5635 22.9102 14.8942V21.9344Z" fill="#198C36"/>
</svg>

<svg width="30" height="28" fill="none" xmlns="http://www.w3.org/2000/svg"><path d="M25.605 0H4.395C1.972 0 0 1.818 0 4.052v19.557c0 2.234 1.972 4.052 4.395 4.052h21.21c2.423 0 4.395-1.818 4.395-4.052V4.052C30 1.818 28.028 0 25.605 0Zm-15 21.934H7.09V10.59h3.515v11.345Zm0-12.966H7.09V5.727h3.515v3.241ZM22.91 21.934h-3.515v-6.483c0-.893-.79-1.62-1.758-1.62-.97 0-1.758.727-1.758 1.62v6.483h-3.516V10.59h3.516v.611c.92-.264 1.52-.611 2.637-.611 2.384.002 4.394 1.974 4.394 4.305v7.04Z" fill="#198C36"/></svg>
